openmetadata-ui/src/main/resources/ui/src/assets/svg/deploy-ingestion.svg

<svg width="32" height="32" viewBox="0 0 32 32" fill="none" xmlns="http://www.w3.org/2000/svg">
<path d="M30.6456 0.0525057L0.710624 9.83407C-0.13478 10.1103 -0.257036 11.2602 0.51237 11.7076L11.8251 18.2857C12.182 18.4933 12.628 18.4682 12.9594 18.2221L16.1394 15.8605L13.7778 19.0405C13.5317 19.372 13.5067 19.8181 13.7142 20.1749L20.2923 31.4876C20.7402 32.2576 21.8899 32.134 22.1659 31.2893L31.9475 1.35442C32.2099 0.550626 31.4454 -0.209038 30.6456 0.0525057ZM20.9189 28.4582L15.8408 19.7252L21.9641 11.4798C22.2692 11.0689 22.2272 10.4964 21.8653 10.1345C21.5034 9.77258 20.9308 9.73052 20.5199 10.0357L12.2746 16.159L3.54161 11.0809L29.3532 2.64665L20.9189 28.4582ZM10.8379 22.6217L3.98398 29.4756C3.58089 29.8786 2.92729 29.8787 2.5242 29.4756C2.12105 29.0725 2.12105 28.4189 2.5242 28.0158L9.37814 21.1619C9.78136 20.7589 10.435 20.7588 10.8379 21.1619C11.2411 21.565 11.2411 22.2186 10.8379 22.6217ZM1.78331 22.8811C1.38016 22.4779 1.38016 21.8244 1.78331 21.4213L4.48778 18.7167C4.89087 18.3136 5.54447 18.3136 5.94756 18.7167C6.35072 19.1199 6.35072 19.7734 5.94756 20.1765L3.24309 22.8811C2.84007 23.2841 2.1864 23.2841 1.78331 22.8811ZM13.2831 26.0522C13.6863 26.4553 13.6863 27.1089 13.2831 27.512L10.5786 30.2165C10.377 30.4181 10.1128 30.5188 9.84872 30.5188C8.93731 30.5188 8.46674 29.4087 9.11886 28.7567L11.8234 26.0522C12.2264 25.6491 12.88 25.6491 13.2831 26.0522Z" fill="white"/>
</svg>

<svg xmlns="http://www.w3.org/2000/svg" width="32" height="32" fill="none"><path fill="#fff" d="M30.646.053.71 9.834c-.846.276-.968 1.426-.199 1.874l11.313 6.578c.357.207.803.182 1.134-.064l3.18-2.362-2.361 3.18a1.032 1.032 0 0 0-.064 1.135l6.578 11.313c.448.77 1.598.646 1.874-.199l9.782-29.935A1.033 1.033 0 0 0 30.646.053Zm-9.727 28.405-5.078-8.733 6.123-8.245a1.032 1.032 0 0 0-1.444-1.444l-8.245 6.123-8.733-5.078 25.811-8.434-8.434 25.811Zm-10.081-5.836-6.854 6.854a1.032 1.032 0 0 1-1.46-1.46l6.854-6.854a1.032 1.032 0 0 1 1.46 1.46Zm-9.055.26a1.032 1.032 0 0 1 0-1.46l2.705-2.705a1.032 1.032 0 0 1 1.46 1.46L3.243 22.88a1.032 1.032 0 0 1-1.46 0Zm11.5 3.17a1.032 1.032 0 0 1 0 1.46l-2.704 2.704a1.029 1.029 0 0 1-.73.303c-.912 0-1.382-1.11-.73-1.762l2.704-2.705a1.032 1.032 0 0 1 1.46 0Z"/></svg>
